modules/themify-icons/icons/layout-tab.svg

<?xml version="1.0" encoding="utf-8"?>
<!-- Generated by IcoMoon.io -->
<!DOCTYPE svg PUBLIC "-//W3C//DTD SVG 1.1//EN" "http://www.w3.org/Graphics/SVG/1.1/DTD/svg11.dtd">
<svg version="1.1" xmlns="http://www.w3.org/2000/svg" xmlns:xlink="http://www.w3.org/1999/xlink" width="17" height="17" viewBox="0 0 17 17">
<g>
</g>
	<path d="M7 3v-1h-7v14h17v-13h-10zM11 4v1h-4v-1h4zM16 15h-15v-12h5v3h10v9zM12 5v-1h4v1h-4z" fill="#000000" />
</svg>

<svg xmlns="http://www.w3.org/2000/svg" width="17" height="17" viewBox="0 0 17 17"><path d="M7 3V2H0v14h17V3H7zm4 1v1H7V4h4zm5 11H1V3h5v3h10v9zM12 5V4h4v1h-4z"/></svg>
